X:1
T:Title
%%score { ( 1 4 ) | ( 2 3 ) }
L:1/8
M:6/8
K:C
V:1 treble nm="Grand Piano"
V:4 treble 
V:2 bass 
V:3 bass 
V:1
 z3 z2[Q:1/4=87] [CE]/[DF]/ | [EG]2 [FA] [EG]2 [Ec] | d<cA A2 c | G2 [FA] [EG]2 E | D3- D2 E/F/ | %5
 [EG]2 [FA] [EG]2 [Ec] | d<cA A2 A | G2 c e2 d | [Ec]3- [Ec]2 [Ec] | B2 c d2 e | %10
 d<c[FA] [EG]2 [Fc] | B2 c d2 e | d3- d2 E/F/ | [EG]2 [FA] [EG]2 [Ec] | d<cA A2 A | G2 c e2 d | %16
[M:5/8] [Ec]-[Ec]- [Ec]3 |] %17
V:2
 z3 z2 [C,G,] | [C,C]2 [C,C] [C,C]2 [C,G,] | [F,A,G]2 [F,CF] [F,CF]2 [A,CF] | %3
 [CE]2[K:bass] [C,C] [C,C]2 [E,C] | [G,B,]3- [G,B,]2 C/D/ | [C,C]2 [C,C] [C,C]2 [C,C] | %6
 [F,A,F]2 [F,CF] [F,CF]2 [F,CF] | [G,CE]2 [G,E] [G,G]2 [G,B,F] | [C,G,C]3- [C,G,C]2 [C,G,] | %9
 [G,D]2 [G,E][K:treble] [G,F]2 [G,G] | [C,A,]2 [C,C] [C,C]2 [C,G,] | %11
 [G,D]2[K:treble] [G,E] [G,F]2 [G,G] | [G,B,G]3- [G,B,G]2[K:bass] C/D/ | %13
 [C,C]2 [C,C] [C,C]2 [C,G,] | [F,A,F]2 [F,CF] [F,CF]2 [F,CF] | [G,CE]2 [G,E] [G,G]2 [G,B,F] | %16
[M:5/8][K:bass] [C,G,C]-[C,G,C]- [C,G,C]3 |] %17
V:3
 x6 | x6 | x6 | x2[K:bass] x4 | z3 z2 [C,G,] | x6 | x6 | x6 | x6 | x3[K:treble] x3 | x6 | %11
 x2[K:treble] x4 | z3 z2[K:bass] C, | x6 | x6 | x6 |[M:5/8][K:bass] x5 |] %17
V:4
 x6 | x6 | x6 | x6 | x6 | x6 | x6 | x6 | x6 | x6 | .F3 z3 | x6 | x6 | x6 | x6 | x6 |[M:5/8] x5 |] %17

